package/converter/svg/thin/align-justify.svg

<svg xmlns="http://www.w3.org/2000/svg" viewBox="0 0 448 512"><!-- Font Awesome Pro 6.0.0-alpha2 by @fontawesome - https://fontawesome.com License - https://fontawesome.com/license (Commercial License) --><path d="M440 56.001H8C3.582 56.001 0 59.582 0 64.001V64.001C0 68.419 3.582 72.001 8 72.001H440C444.418 72.001 448 68.419 448 64.001V64.001C448 59.582 444.418 56.001 440 56.001ZM0 192.001V192.001C0 196.419 3.582 200.001 8 200.001H440C444.418 200.001 448 196.419 448 192.001V192.001C448 187.582 444.418 184.001 440 184.001H8C3.582 184.001 0 187.582 0 192.001ZM0 320.001L0 320.001C0 324.419 3.582 328.001 8 328.001H440C444.418 328.001 448 324.419 448 320.001L448 320.001C448 315.582 444.418 312.001 440 312.001H8C3.582 312.001 0 315.582 0 320.001ZM8 456.001H440C444.418 456.001 448 452.419 448 448.001L448 448.001C448 443.582 444.418 440.001 440 440.001H8C3.582 440.001 0 443.582 0 448.001L0 448.001C0 452.419 3.582 456.001 8 456.001Z"/></svg>

<svg xmlns="http://www.w3.org/2000/svg" viewBox="0 0 448 512"><!--! Font Awesome Pro 6.6.0 by @fontawesome - https://fontawesome.com License - https://fontawesome.com/license (Commercial License) Copyright 2024 Fonticons, Inc. --><path d="M8 56c-4.4 0-8 3.6-8 8s3.6 8 8 8l432 0c4.4 0 8-3.6 8-8s-3.6-8-8-8L8 56zM0 192c0 4.4 3.6 8 8 8l432 0c4.4 0 8-3.6 8-8s-3.6-8-8-8L8 184c-4.4 0-8 3.6-8 8zM8 312c-4.4 0-8 3.6-8 8s3.6 8 8 8l432 0c4.4 0 8-3.6 8-8s-3.6-8-8-8L8 312zM8 440c-4.4 0-8 3.6-8 8s3.6 8 8 8l432 0c4.4 0 8-3.6 8-8s-3.6-8-8-8L8 440z"/></svg>
